X: 38548
T: Steve Quinn's Fancy
R: slip jig
M: 9/8
K: Edorian
EF|:GEE eBc dcB|AdB AFD DEF|GEE eBc dcB|1 AdB AFD E2F:|2 AdB AFD E2A||
|:B2e eBe gfe|dcd f/g/ae fed|1 B2e eBe gfe|dfb afd {ef}e2d:|2 efg fed BAF|AdB AFD E2F||

